stuff/config/qss/Default/imgs/white/flipslider/flipslider-dark.svg

<?xml version="1.0" encoding="UTF-8" standalone="no"?>
<!DOCTYPE svg PUBLIC "-//W3C//DTD SVG 1.1//EN" "http://www.w3.org/Graphics/SVG/1.1/DTD/svg11.dtd">
<svg width="20px" height="20px" version="1.1" xmlns="http://www.w3.org/2000/svg" xmlns:xlink="http://www.w3.org/1999/xlink" xml:space="preserve" xmlns:serif="http://www.serif.com/" style="fill-rule:evenodd;clip-rule:evenodd;stroke-linejoin:round;stroke-miterlimit:2;">
    <rect x="1" y="4" width="18" height="12" style="fill:url(#_Linear1);"/>
    <path d="M20,3l0,14l-20,0l0,-14l20,0Zm-1,1l-18,0l0,12l18,0l0,-12Z"/>
    <defs>
        <linearGradient id="_Linear1" x1="0" y1="0" x2="1" y2="0" gradientUnits="userSpaceOnUse" gradientTransform="matrix(9.55225e-16,15.6,-15.6,9.55225e-16,10,2.8)"><stop offset="0" style="stop-color:#000;stop-opacity:0.25"/><stop offset="1" style="stop-color:#000;stop-opacity:0"/></linearGradient>
    </defs>
</svg>

<?xml version="1.0" encoding="UTF-8" standalone="no"?>
<!DOCTYPE svg PUBLIC "-//W3C//DTD SVG 1.1//EN" "http://www.w3.org/Graphics/SVG/1.1/DTD/svg11.dtd">
<svg width="100%" height="100%" viewBox="0 0 20 20" version="1.1" xmlns="http://www.w3.org/2000/svg" xmlns:xlink="http://www.w3.org/1999/xlink" xml:space="preserve" xmlns:serif="http://www.serif.com/" style="fill-rule:evenodd;clip-rule:evenodd;stroke-linejoin:round;stroke-miterlimit:2;">
    <rect x="1" y="4" width="18" height="12" style="fill:url(#_Linear1);"/>
    <path d="M20,3L20,17L0,17L0,3L20,3ZM19,4L1,4L1,16L19,16L19,4Z" style="fill:rgb(186,186,186);"/>
    <defs>
        <linearGradient id="_Linear1" x1="0" y1="0" x2="1" y2="0" gradientUnits="userSpaceOnUse" gradientTransform="matrix(9.55225e-16,15.6,-15.6,9.55225e-16,10,2.8)"><stop offset="0" style="stop-color:black;stop-opacity:0.25"/><stop offset="1" style="stop-color:black;stop-opacity:0"/></linearGradient>
    </defs>
</svg>
